X:29
T:Jer Quigley's
S:Trad, arr. Paddy O'Brien 
R:reel
E:9
I:speed 350
M:C|
K:EDor
A2|Be~e2 Beed|Beed ~B2AG|EAdA EAdA|FA~A2 BAFA|\
Be~e2 Beed|Beed ~B2 AF|~G2 FA GBdB|AGFG E2:|\
FA|Beef edBA|(3Bcd ef gefe|~d2ce dcBA|(3Bcd ef gefd|\
Beef edBA|(3Bcd ef gedB|~G2FA GBdB|AGFG E2:|**

